assets/Circus tent/Flat/circus_tent_flat.svg

<svg width="32" height="32" viewBox="0 0 32 32" fill="none" xmlns="http://www.w3.org/2000/svg">
<path d="M12.4346 15.66L15.6429 7.9726H16.7733C17.6653 8.70782 19.9034 10.4734 21.7199 11.6541C23.037 12.5103 24.3487 13.3009 25.3732 13.9185C26.1147 14.3654 26.7058 14.7217 27.0395 14.9464V15.66H12.4346Z" fill="#F3EEF8"/>
<path d="M11.0088 15.2361V27.5144L7.75481 29.9998L4.02704 30.0039C3.3435 30.0039 2.96198 29.6382 3.00967 29.0183C3.05737 28.3983 4.59932 16.9053 4.82187 15.9515C6.2589 15.3919 8.05942 15.2414 8.78006 15.2361H9.06619H11.0088Z" fill="#CA0B4A"/>
<path d="M11.0088 27.9932L16.0858 27.1091L24.5752 30H28.1446C28.919 30 29.0509 29.4948 28.9849 28.94C28.9582 28.7146 28.889 28.1495 28.7978 27.4043C28.6645 26.3154 28.4842 24.8419 28.3203 23.4819C28.0442 21.1912 27.3216 16.6541 27.232 16.0983C27.1423 15.5425 26.981 15.2361 26.5686 15.2361H11.0088V27.9932Z" fill="#FF5E59"/>
<path d="M12.4346 15.66L15.6429 7.9726H16.4229C16.5247 8.13577 16.6219 8.2922 16.7167 8.4449C17.3443 9.45495 17.8704 10.3018 18.9693 11.8602C19.8655 13.1312 20.308 13.7937 20.5991 14.2298C20.8039 14.5364 20.9339 14.731 21.0942 14.9464C21.0942 15.2886 21.0676 15.4926 21.0545 15.5932C21.0502 15.6262 21.0474 15.648 21.0474 15.66H12.4346Z" fill="#E1D8EC"/>
<path d="M15.6973 7.9726H15.265C13.1891 9.96745 9.29669 12.3515 7.83704 13.2436C6.66932 13.9572 5.49079 14.6761 5.04749 14.9464V15.66H11.4862L15.6973 7.9726Z" fill="#CDC4D6"/>
<path d="M7.58037 30.0021L11 30L16 28.1678L21 30H24.5686C25.0651 30 25.1214 29.5777 25.0844 29.2416C25.033 28.7731 23.9936 20.3369 23.4654 16.1343L18.6428 15.2903H16.0565H13.4584L8.68743 15.9965C8.13501 20.3343 7.02233 29.0884 6.99089 29.4028C6.95159 29.7957 7.16773 30.0021 7.58037 30.0021Z" fill="#E1D8EC"/>
<path d="M4.89163 17.4745C4.23207 16.6091 4.5408 15.7157 4.75129 15.3181C4.94553 14.9512 5.13018 14.9579 5.46698 14.9579H8.38119C8.78815 14.9579 8.88171 15.0468 8.68524 15.5473C8.48878 16.0478 7.98359 16.9272 7.38484 17.4277C6.78609 17.9282 5.55119 18.3399 4.89163 17.4745Z" fill="#E1D8EC"/>
<path d="M27.1391 17.4745C27.7941 16.6091 27.4875 15.7157 27.2785 15.3181C27.0856 14.9512 26.9022 14.9579 26.5678 14.9579H23.6737C23.2695 14.9579 23.1766 15.0468 23.3717 15.5473C23.5668 16.0478 24.0685 16.9272 24.6631 17.4277C25.2578 17.9282 26.4841 18.3399 27.1391 17.4745Z" fill="#E1D8EC"/>
<path d="M13.1656 22.4727L13.5101 15.5659H18.5839L18.9474 22.4727H13.1656Z" fill="#F8312F"/>
<path d="M16.05 19.9701C13.38 19.9701 11.0088 22.1401 11.0088 24.8101L11.0088 29.9961H20.9961L20.9961 24.8101C20.9961 22.1401 18.72 19.9701 16.05 19.9701Z" fill="#533566"/>
<path d="M9.23162 14.5645C8.97327 14.7952 8.89329 14.9913 8.88559 15.0605C8.81536 15.2333 9.77371 15.3258 10.9848 15.3258C12.1958 15.3258 13.3936 15.4599 13.4974 15.1946C14.2355 13.4876 15.3984 9.59729 15.8636 7.96716H15.483C12.9917 11.5311 9.55456 14.2762 9.23162 14.5645Z" fill="#F837A2"/>
<path d="M22.9084 14.5645C23.1681 14.7952 23.2485 14.9913 23.2562 15.0605C23.3268 15.2333 22.3636 15.3258 21.1464 15.3258C19.9292 15.3258 18.6772 15.2566 18.5728 14.9913C17.8309 13.2843 16.7103 9.59729 16.2427 7.96716H16.6253C19.1293 11.5311 22.5839 14.2762 22.9084 14.5645Z" fill="#FF5E59"/>
<path d="M16.272 2.15399C16.4303 2.13303 17.1342 2.25319 18.6825 2.90158C19.0553 3.04567 19.5408 3.23564 19.7941 3.35173C20.0474 3.46782 20.0421 3.75805 19.7941 3.86886C19.5461 3.97967 16.8131 4.96117 16.272 4.96117C16.2807 4.33745 16.2778 3.71355 16.2749 3.08969C16.2734 2.77778 16.272 2.46587 16.272 2.15399ZM22.8752 14.9679C23.2896 14.9679 23.3587 15.117 23.5116 15.6982C23.7385 16.4632 23.26 17.9684 21.4987 17.9684C20.1865 17.9684 18.9531 17.0543 18.6423 15.7379C18.6301 15.6794 18.6017 15.5344 18.5862 15.4219C18.5668 15.2812 18.5242 14.9679 18.9043 14.9679H22.8752Z" fill="#F8312F"/>
<path d="M14.9985 7.64771C14.9985 7.90198 15.1462 8.03321 15.3348 8.03321H16.5898C16.8605 8.03321 16.9917 7.84457 16.9917 7.64771V7.14737C16.9917 6.50759 16.5898 6.41734 16.5898 5.85141V2.76728C16.5898 2.24235 16.3191 2.07007 16.0156 2.07007C15.7121 2.07007 15.4333 2.24232 15.4333 2.76728V5.85141C15.4333 6.483 14.9985 6.39276 14.9985 7.14737V7.64771Z" fill="#FFB02E"/>
<path d="M8.54432 15.6982C8.6983 15.117 8.76788 14.9679 9.18516 14.9679H13.1836C13.5664 14.9679 13.5234 15.2812 13.5039 15.4219C13.4883 15.5344 13.4598 15.6794 13.4475 15.7379C13.1345 17.0543 11.8926 17.9684 10.5712 17.9684C8.79768 17.9684 8.3158 16.4632 8.54432 15.6982Z" fill="#E5336D"/>
<path d="M14.0175 15.0016H14.0175H18.3008C18.5898 15.0016 18.6211 15.1602 18.6557 15.449C18.7807 17.074 17.3597 17.9753 15.9978 17.9753C14.3333 17.9753 13.3333 16.62 13.4583 15.449C13.5061 15.0016 13.6162 15.0016 14.0175 15.0016Z" fill="#E1D8EC"/>
</svg>

<svg xmlns="http://www.w3.org/2000/svg" width="32" height="32" fill="none"><path fill="#F3EEF8" d="m12.435 15.66 3.208-7.687h1.13c.892.735 3.13 2.5 4.947 3.681 1.317.856 2.629 1.647 3.653 2.264.742.447 1.333.804 1.666 1.028v.714H12.436Z"/><path fill="#CA0B4A" d="M11.009 15.236v12.278L7.755 30l-3.728.004c-.683 0-1.065-.366-1.017-.986.047-.62 1.59-12.113 1.812-13.067 1.437-.56 3.237-.71 3.958-.715h2.229Z"/><path fill="#FF5E59" d="m11.009 27.993 5.077-.884L24.576 30h3.569c.774 0 .906-.505.84-1.06l-.187-1.536c-.133-1.089-.314-2.562-.478-3.922-.276-2.29-.998-6.828-1.088-7.384-.09-.555-.251-.862-.663-.862h-15.56v12.757Z"/><path fill="#E1D8EC" d="m12.435 15.66 3.208-7.687h.78l.294.472c.627 1.01 1.153 1.857 2.252 3.415a100.605 100.605 0 0 1 1.63 2.37c.205.306.335.501.495.716 0 .343-.026.547-.04.647a.69.69 0 0 0-.007.067h-8.612Z"/><path fill="#CDC4D6" d="M15.697 7.973h-.432c-2.076 1.994-5.968 4.378-7.428 5.27l-2.79 1.703v.714h6.44l4.21-7.687Z"/><path fill="#E1D8EC" d="M7.58 30.002 11 30l5-1.832L21 30h3.569c.496 0 .552-.422.515-.758-.051-.469-1.09-8.905-1.619-13.108l-4.822-.844H13.458l-4.77.707A4924.687 4924.687 0 0 0 6.99 29.402c-.04.393.177.6.59.6ZM4.892 17.474c-.66-.865-.351-1.758-.14-2.156.194-.367.378-.36.715-.36h2.914c.407 0 .5.089.304.59-.196.5-.701 1.38-1.3 1.88-.599.5-1.834.912-2.493.046ZM27.14 17.474c.654-.865.348-1.758.139-2.156-.193-.367-.377-.36-.711-.36h-2.894c-.404 0-.497.089-.302.59.195.5.697 1.38 1.291 1.88.595.5 1.821.912 2.476.046Z"/><path fill="#F8312F" d="m13.166 22.473.344-6.907h5.074l.363 6.907h-5.781Z"/><path fill="#533566" d="M16.05 19.97c-2.67 0-5.041 2.17-5.041 4.84v5.186h9.987V24.81c0-2.67-2.276-4.84-4.946-4.84Z"/><path fill="#F837A2" d="M9.232 14.565c-.259.23-.339.426-.346.495-.07.173.888.266 2.099.266 1.21 0 2.409.134 2.512-.131.739-1.707 1.901-5.598 2.367-7.228h-.381c-2.491 3.564-5.928 6.31-6.251 6.598Z"/><path fill="#FF5E59" d="M22.908 14.565c.26.23.34.426.348.495.07.173-.892.266-2.11.266-1.217 0-2.469-.07-2.573-.335-.742-1.707-1.863-5.394-2.33-7.024h.382c2.504 3.564 5.959 6.31 6.283 6.598Z"/><path fill="#F8312F" d="M16.272 2.154c.158-.021.862.1 2.41.748.373.144.859.334 1.112.45.253.116.248.406 0 .517-.248.11-2.98 1.092-3.522 1.092.009-.624.006-1.247.003-1.871l-.003-.936Zm6.603 12.814c.415 0 .484.149.637.73.226.765-.252 2.27-2.013 2.27-1.313 0-2.546-.914-2.857-2.23a5.46 5.46 0 0 1-.056-.316c-.02-.14-.062-.454.318-.454h3.971Z"/><path fill="#FFB02E" d="M14.998 7.648c0 .254.148.385.337.385h1.255c.27 0 .402-.188.402-.385v-.5c0-.64-.402-.73-.402-1.297V2.767c0-.525-.27-.697-.574-.697-.304 0-.583.172-.583.697v3.084c0 .632-.434.542-.434 1.296v.5Z"/><path fill="#E5336D" d="M8.544 15.698c.154-.581.224-.73.641-.73h3.999c.382 0 .34.313.32.454a5.42 5.42 0 0 1-.056.316c-.314 1.316-1.555 2.23-2.877 2.23-1.773 0-2.255-1.505-2.027-2.27Z"/><path fill="#E1D8EC" d="M14.018 15.002H18.3c.289 0 .32.158.355.447.125 1.625-1.296 2.526-2.658 2.526-1.665 0-2.665-1.355-2.54-2.526.048-.447.158-.447.56-.447Z"/></svg>
